X:73
T:Shelly and the Shoe
R:reel
C:Paul S. Cranford
O:Cape Breton Island
S:http://www.cranfordpub.com
D:currently unrecorded
B:currently unpublished in book form
Z:psc, (re-formatted,updated 9/17/04)
N:
H:                                                        copyrights Cranford Publications, SOCAN
L:1/8
Q:333
M:C|
K:E
F|E2 GB {B} e2 Be|cdef gffg|eB B/B/B eAca|gbaf geeF|
E2 GB {B} e2 Be|cdef gffg|bB B/B/B cAAa|gbaf gee||
||c|BEGB cAec|BE E/E/E GFFG|EBGB cAaf|gbaf geec|
BEGB cAec|BE E/E/E GFFd|eEBe cAaf|gbaf gee|]
